Newaita-dark/devices/32/media-memory-sm.svg

<svg height="32pt" viewBox="0 0 32 32" width="32pt" xmlns="http://www.w3.org/2000/svg" xmlns:xlink="http://www.w3.org/1999/xlink"><linearGradient id="a"><stop offset="0" stop-opacity=".27451"/><stop offset="1" stop-opacity="0"/></linearGradient><linearGradient id="b" gradientUnits="userSpaceOnUse" x1="15.876521" x2="15.876521" xlink:href="#a" y1="27.982205" y2="29.30524887502"/><linearGradient id="c"><stop offset="0" stop-opacity=".313725"/><stop offset=".222222" stop-opacity=".27451"/><stop offset="1" stop-opacity="0"/></linearGradient><radialGradient id="d" cx="450.90894" cy="189.57936" gradientTransform="matrix(.00000017 -.0781325 -.140638 -.0000001 50.476844 63.543604)" gradientUnits="userSpaceOnUse" r="21.166656" xlink:href="#c"/><radialGradient id="e" cx="450.90894" cy="189.57936" gradientTransform="matrix(-.00000017 .0781325 .140638 .0000001 -18.723812 -7.579209)" gradientUnits="userSpaceOnUse" r="21.166656" xlink:href="#c"/><radialGradient id="f" cx="450.90894" cy="189.57936" gradientTransform="matrix(-.00000017 -.0781325 .140638 -.0000001 -18.723812 63.543604)" gradientUnits="userSpaceOnUse" r="21.166656" xlink:href="#c"/><radialGradient id="g" cx="450.90894" cy="189.57936" gradientTransform="matrix(.00000017 .0781325 -.140638 .0000001 50.476842 -7.57921)" gradientUnits="userSpaceOnUse" r="21.166656" xlink:href="#c"/><linearGradient id="h" gradientUnits="userSpaceOnUse" x1="15.876524" x2="15.876524" y1="30.68002175004" y2=".250017"><stop offset="0" stop-color="#424242"/><stop offset="1" stop-color="#616161"/></linearGradient><linearGradient id="i" gradientUnits="userSpaceOnUse" x1="15.876524" x2="15.876524" y1="28.033934" y2="19.43414999998"><stop offset="0" stop-color="#bdbdbd"/><stop offset="1" stop-color="#e0e0e0"/></linearGradient><linearGradient id="j" gradientUnits="userSpaceOnUse" x1="15.876524" x2="15.876524" y1="28.033934" y2="2.89610412498"><stop offset="0" stop-color="#ffca28"/><stop offset="1" stop-color="#ffd54f"/></linearGradient><linearGradient id="k" gradientUnits="userSpaceOnUse" x1="15.8765265" x2="15.8765265" xlink:href="#a" y1="16.126541" y2="5.54219124996"/><linearGradient id="l" gradientUnits="userSpaceOnUse" x1="17.5303315" x2="17.5303315" xlink:href="#a" y1="16.126541" y2="5.54219124996"/><linearGradient id="m" gradientUnits="userSpaceOnUse" x1="19.1841345" x2="19.1841345" xlink:href="#a" y1="16.126541" y2="5.54219124996"/><linearGradient id="n" gradientUnits="userSpaceOnUse" x1="20.8379385" x2="20.8379385" xlink:href="#a" y1="16.126541" y2="5.54219124996"/><linearGradient id="o" gradientUnits="userSpaceOnUse" x1="22.4917425" x2="22.4917425" xlink:href="#a" y1="16.126541" y2="5.54219124996"/><linearGradient id="p" gradientUnits="userSpaceOnUse" x1="14.2227235" x2="14.2227235" xlink:href="#a" y1="16.126541" y2="5.54219124996"/><linearGradient id="q" gradientUnits="userSpaceOnUse" x1="12.5689185" x2="12.5689185" xlink:href="#a" y1="16.126541" y2="5.54219124996"/><linearGradient id="r" gradientUnits="userSpaceOnUse" x1="10.9151145" x2="10.9151145" xlink:href="#a" y1="16.126541" y2="5.54219124996"/><linearGradient id="s" gradientUnits="userSpaceOnUse" x1="9.2613105" x2="9.2613105" xlink:href="#a" y1="16.126541" y2="5.54219124996"/><linearGradient id="t" gradientUnits="userSpaceOnUse" x1="15.876524" x2="15.876524" y1="28.033934" y2="19.43414999998"><stop offset="0" stop-color="#ff7043"/><stop offset="1" stop-color="#ff8a65"/></linearGradient><path d="m7.609375 28.007812h16.535156v1.347657h-16.535156zm0 0" fill="url(#b)"/><path d="m24.144531 27.980469h2.648438v-1.320313h-2.648438zm0 0" fill="url(#d)"/><path d="m7.609375 27.980469h-2.648437v1.324219h2.648437zm0 0" fill="url(#e)"/><path d="m7.609375 27.980469h-2.648437v-1.320313h2.648437zm0 0" fill="url(#f)"/><path d="m24.144531 27.980469h2.648438v1.324219h-2.648438zm0 0" fill="url(#g)"/><path d="m11.90625 2.902344c-.347656 0-.683594.140625-.929688.386718l-5.292968 5.292969c-.246094.246094-.386719.578125-.386719.929688v17.199219c0 .726562.589844 1.316406 1.320313 1.316406h18.519531c.726562 0 1.316406-.589844 1.316406-1.316406v-22.492188c0-.726562-.589844-1.316406-1.316406-1.316406zm0 0" fill="url(#h)"/><path d="m8.601562 19.433594c-.734374 0-1.324218.589844-1.324218 1.324218v7.277344h17.199218v-7.277344c0-.734374-.589843-1.324218-1.324218-1.324218zm0 0" fill="url(#i)"/><path d="m11.90625 5.546875c-.347656 0-.683594.140625-.929688.386719l-2.644531 2.648437c-.25.246094-.386719.578125-.386719.929688v5.292969c0 .726562.589844 1.316406 1.316407 1.316406h13.230469c.726562 0 1.316406-.589844 1.316406-1.316406v-7.9375c0-.730469-.589844-1.320313-1.316406-1.320313zm0 0" fill="url(#j)"/><path d="m15.875 6.535156c.183594 0 .332031.148438.332031.332032v7.9375c0 .179687-.148437.328124-.332031.328124-.179688 0-.328125-.148437-.328125-.328124v-7.9375c0-.183594.148437-.332032.328125-.332032zm0 0" fill="url(#k)"/><path d="m17.53125 6.535156c.183594 0 .328125.148438.328125.332032v7.9375c0 .179687-.144531.328124-.328125.328124s-.332031-.148437-.332031-.328124v-7.9375c0-.183594.148437-.332032.332031-.332032zm0 0" fill="url(#l)"/><path d="m19.183594 6.535156c.183594 0 .332031.148438.332031.332032v7.9375c0 .179687-.148437.328124-.332031.328124s-.332032-.148437-.332032-.328124v-7.9375c0-.183594.148438-.332032.332032-.332032zm0 0" fill="url(#m)"/><path d="m20.839844 6.535156c.179687 0 .328125.148438.328125.332032v7.9375c0 .179687-.148438.328124-.328125.328124-.183594 0-.332032-.148437-.332032-.328124v-7.9375c0-.183594.148438-.332032.332032-.332032zm0 0" fill="url(#n)"/><path d="m22.492188 6.535156c.183593 0 .332031.148438.332031.332032v7.9375c0 .179687-.148438.328124-.332031.328124-.183594 0-.332032-.148437-.332032-.328124v-7.9375c0-.183594.148438-.332032.332032-.332032zm0 0" fill="url(#o)"/><path d="m14.222656 6.535156c.183594 0 .332032.148438.332032.332032v7.9375c0 .179687-.148438.328124-.332032.328124s-.332031-.148437-.332031-.328124v-7.9375c0-.183594.148437-.332032.332031-.332032zm0 0" fill="url(#p)"/><path d="m12.570312 6.535156c.179688 0 .328126.148438.328126.332032v7.9375c0 .179687-.148438.328124-.328126.328124-.183593 0-.332031-.148437-.332031-.328124v-7.9375c0-.183594.148438-.332032.332031-.332032zm0 0" fill="url(#q)"/><path d="m10.914062 7.195312c.183594 0 .332032.148438.332032.332032v7.277344c0 .179687-.148438.328124-.332032.328124-.179687 0-.328124-.148437-.328124-.328124v-7.277344c0-.183594.148437-.332032.328124-.332032zm0 0" fill="url(#r)"/><path d="m9.261719 8.851562c.183593 0 .332031.144532.332031.328126v5.625c0 .179687-.148438.328124-.332031.328124-.183594 0-.332031-.148437-.332031-.328124v-5.625c0-.183594.148437-.328126.332031-.328126zm0 0" fill="url(#s)"/><path d="m190.48181-126.258474c-5.561969 0-10.936456 2.249785-14.87358 6.186909l-42.308459 42.370954c-3.999619 3.937124-6.18691 9.249116-6.18691 14.873579v84.679414c0 11.62389 9.436599 21.060489 21.060489 21.060489h211.667287c11.62389 0 21.060489-9.436599 21.060489-21.060489v-126.987874c0-11.686384-9.436599-21.122982-21.060489-21.122982zm0 0" fill="none" stroke="#212121" stroke-linecap="round" stroke-linejoin="round" stroke-width="3" transform="matrix(.062506 0 0 .062506 0 13.438783)"/><path d="m11.90625 2.902344c-.347656 0-.683594.140625-.929688.386718l-5.292968 5.292969c-.246094.246094-.386719.578125-.386719.929688v.324219c0-.347657.140625-.683594.386719-.929688l5.292968-5.292969c.246094-.246093.582032-.386719.929688-.386719h13.230469c.726562 0 1.316406.589844 1.316406 1.316407v-.324219c0-.726562-.589844-1.316406-1.316406-1.316406zm0 0" fill="#fff" fill-opacity=".313725"/><path d="m5.296875 26.265625v.445313c0 .726562.589844 1.316406 1.320313 1.316406h18.519531c.726562 0 1.316406-.589844 1.316406-1.316406v-.445313c0 .726563-.589844 1.316406-1.316406 1.316406h-18.519531c-.730469 0-1.320313-.589843-1.320313-1.316406zm0 0" fill-opacity=".235294"/><path d="m190.48181-168.566934c-5.561969 0-10.936456 2.249785-14.87358 6.186909l-84.679413 84.679414c-3.937124 3.937124-6.186909 9.249116-6.186909 14.873579v275.161224c0 11.62389 9.436598 21.060488 21.122982 21.060488h296.284207c11.62389 0 21.060489-9.436598 21.060489-21.060488v-359.840637c0-11.62389-9.436599-21.060489-21.060489-21.060489zm0 0" fill="none" stroke="#212121" stroke-linecap="round" stroke-linejoin="round" stroke-width="3" transform="matrix(.062506 0 0 .062506 0 13.438783)"/><path d="m8.601562 19.433594c-.734374 0-1.324218.589844-1.324218 1.324218v.660157h17.199218v-.660157c0-.734374-.589843-1.324218-1.324218-1.324218zm0 0" fill="url(#t)"/><path d="m520.107819 1175.08465c-44.405209 0-80.071095 35.665886-80.071095 80.071095v440.036724h1039.97944v-440.036724c0-44.405209-35.665885-80.071095-80.071094-80.071095zm0 0" fill="none" stroke="#212121" stroke-linecap="round" stroke-linejoin="round" stroke-width="11.338583" transform="scale(.016538)"/></svg>

<?xml version="1.0" encoding="UTF-8"?>
<svg xmlns="http://www.w3.org/2000/svg" xmlns:xlink="http://www.w3.org/1999/xlink" width="32pt" height="32pt" viewBox="0 0 32 32" version="1.1">
<defs>
<linearGradient id="linear0" gradientUnits="userSpaceOnUse" x1="254" y1="233.5" x2="254" y2="254.66667" gradientTransform="matrix(0.062506,0,0,0.062506,-0.00000250024,13.387054)">
<stop offset="0" style="stop-color:rgb(0%,0%,0%);stop-opacity:0.27451;"/>
<stop offset="1" style="stop-color:rgb(0%,0%,0%);stop-opacity:0;"/>
</linearGradient>
<radialGradient id="radial0" gradientUnits="userSpaceOnUse" cx="450.90894" cy="189.57936" fx="450.90894" fy="189.57936" r="21.166656" gradientTransform="matrix(0.00000017417,-0.0781325,-0.140638,-0.000000101539,50.476844,63.543604)">
<stop offset="0" style="stop-color:rgb(0%,0%,0%);stop-opacity:0.313725;"/>
<stop offset="0.222222" style="stop-color:rgb(0%,0%,0%);stop-opacity:0.27451;"/>
<stop offset="1" style="stop-color:rgb(0%,0%,0%);stop-opacity:0;"/>
</radialGradient>
<radialGradient id="radial1" gradientUnits="userSpaceOnUse" cx="450.90894" cy="189.57936" fx="450.90894" fy="189.57936" r="21.166656" gradientTransform="matrix(-0.00000017417,0.0781325,0.140638,0.000000101539,-18.723812,-7.579209)">
<stop offset="0" style="stop-color:rgb(0%,0%,0%);stop-opacity:0.313725;"/>
<stop offset="0.222222" style="stop-color:rgb(0%,0%,0%);stop-opacity:0.27451;"/>
<stop offset="1" style="stop-color:rgb(0%,0%,0%);stop-opacity:0;"/>
</radialGradient>
<radialGradient id="radial2" gradientUnits="userSpaceOnUse" cx="450.90894" cy="189.57936" fx="450.90894" fy="189.57936" r="21.166656" gradientTransform="matrix(-0.00000017417,-0.0781325,0.140638,-0.000000101539,-18.723812,63.543604)">
<stop offset="0" style="stop-color:rgb(0%,0%,0%);stop-opacity:0.313725;"/>
<stop offset="0.222222" style="stop-color:rgb(0%,0%,0%);stop-opacity:0.27451;"/>
<stop offset="1" style="stop-color:rgb(0%,0%,0%);stop-opacity:0;"/>
</radialGradient>
<radialGradient id="radial3" gradientUnits="userSpaceOnUse" cx="450.90894" cy="189.57936" fx="450.90894" fy="189.57936" r="21.166656" gradientTransform="matrix(0.00000017417,0.0781325,-0.140638,0.000000101539,50.476842,-7.57921)">
<stop offset="0" style="stop-color:rgb(0%,0%,0%);stop-opacity:0.313725;"/>
<stop offset="0.222222" style="stop-color:rgb(0%,0%,0%);stop-opacity:0.27451;"/>
<stop offset="1" style="stop-color:rgb(0%,0%,0%);stop-opacity:0;"/>
</radialGradient>
<linearGradient id="linear1" gradientUnits="userSpaceOnUse" x1="254" y1="275.83334" x2="254" y2="-211" gradientTransform="matrix(0.062506,0,0,0.062506,0,13.438783)">
<stop offset="0" style="stop-color:rgb(25.882353%,25.882353%,25.882353%);stop-opacity:1;"/>
<stop offset="1" style="stop-color:rgb(38.039216%,38.039216%,38.039216%);stop-opacity:1;"/>
</linearGradient>
<linearGradient id="linear2" gradientUnits="userSpaceOnUse" x1="254" y1="233.5" x2="254" y2="95.916664" gradientTransform="matrix(0.062506,0,0,0.062506,0,13.438783)">
<stop offset="0" style="stop-color:rgb(74.117647%,74.117647%,74.117647%);stop-opacity:1;"/>
<stop offset="1" style="stop-color:rgb(87.843137%,87.843137%,87.843137%);stop-opacity:1;"/>
</linearGradient>
<linearGradient id="linear3" gradientUnits="userSpaceOnUse" x1="254" y1="233.5" x2="254" y2="-168.66667" gradientTransform="matrix(0.062506,0,0,0.062506,0,13.438783)">
<stop offset="0" style="stop-color:rgb(100%,79.215686%,15.686275%);stop-opacity:1;"/>
<stop offset="1" style="stop-color:rgb(100%,83.529412%,30.980392%);stop-opacity:1;"/>
</linearGradient>
<linearGradient id="linear4" gradientUnits="userSpaceOnUse" x1="349.25" y1="43" x2="349.25" y2="-126.33334" gradientTransform="matrix(0.062506,0,0,0.062506,-5.953694,13.438783)">
<stop offset="0" style="stop-color:rgb(0%,0%,0%);stop-opacity:0.27451;"/>
<stop offset="1" style="stop-color:rgb(0%,0%,0%);stop-opacity:0;"/>
</linearGradient>
<linearGradient id="linear5" gradientUnits="userSpaceOnUse" x1="349.25" y1="43" x2="349.25" y2="-126.33334" gradientTransform="matrix(0.062506,0,0,0.062506,-4.299889,13.438783)">
<stop offset="0" style="stop-color:rgb(0%,0%,0%);stop-opacity:0.27451;"/>
<stop offset="1" style="stop-color:rgb(0%,0%,0%);stop-opacity:0;"/>
</linearGradient>
<linearGradient id="linear6" gradientUnits="userSpaceOnUse" x1="349.25" y1="43" x2="349.25" y2="-126.33334" gradientTransform="matrix(0.062506,0,0,0.062506,-2.646086,13.438783)">
<stop offset="0" style="stop-color:rgb(0%,0%,0%);stop-opacity:0.27451;"/>
<stop offset="1" style="stop-color:rgb(0%,0%,0%);stop-opacity:0;"/>
</linearGradient>
<linearGradient id="linear7" gradientUnits="userSpaceOnUse" x1="349.25" y1="43" x2="349.25" y2="-126.33334" gradientTransform="matrix(0.062506,0,0,0.062506,-0.992282,13.438783)">
<stop offset="0" style="stop-color:rgb(0%,0%,0%);stop-opacity:0.27451;"/>
<stop offset="1" style="stop-color:rgb(0%,0%,0%);stop-opacity:0;"/>
</linearGradient>
<linearGradient id="linear8" gradientUnits="userSpaceOnUse" x1="349.25" y1="43" x2="349.25" y2="-126.33334" gradientTransform="matrix(0.062506,0,0,0.062506,0.661522,13.438783)">
<stop offset="0" style="stop-color:rgb(0%,0%,0%);stop-opacity:0.27451;"/>
<stop offset="1" style="stop-color:rgb(0%,0%,0%);stop-opacity:0;"/>
</linearGradient>
<linearGradient id="linear9" gradientUnits="userSpaceOnUse" x1="349.25" y1="43" x2="349.25" y2="-126.33334" gradientTransform="matrix(0.062506,0,0,0.062506,-7.607497,13.438783)">
<stop offset="0" style="stop-color:rgb(0%,0%,0%);stop-opacity:0.27451;"/>
<stop offset="1" style="stop-color:rgb(0%,0%,0%);stop-opacity:0;"/>
</linearGradient>
<linearGradient id="linear10" gradientUnits="userSpaceOnUse" x1="349.25" y1="43" x2="349.25" y2="-126.33334" gradientTransform="matrix(0.062506,0,0,0.062506,-9.261302,13.438783)">
<stop offset="0" style="stop-color:rgb(0%,0%,0%);stop-opacity:0.27451;"/>
<stop offset="1" style="stop-color:rgb(0%,0%,0%);stop-opacity:0;"/>
</linearGradient>
<linearGradient id="linear11" gradientUnits="userSpaceOnUse" x1="349.25" y1="43" x2="349.25" y2="-126.33334" gradientTransform="matrix(0.062506,0,0,0.062506,-10.915106,13.438783)">
<stop offset="0" style="stop-color:rgb(0%,0%,0%);stop-opacity:0.27451;"/>
<stop offset="1" style="stop-color:rgb(0%,0%,0%);stop-opacity:0;"/>
</linearGradient>
<linearGradient id="linear12" gradientUnits="userSpaceOnUse" x1="349.25" y1="43" x2="349.25" y2="-126.33334" gradientTransform="matrix(0.062506,0,0,0.062506,-12.56891,13.438783)">
<stop offset="0" style="stop-color:rgb(0%,0%,0%);stop-opacity:0.27451;"/>
<stop offset="1" style="stop-color:rgb(0%,0%,0%);stop-opacity:0;"/>
</linearGradient>
<linearGradient id="linear13" gradientUnits="userSpaceOnUse" x1="254" y1="233.5" x2="254" y2="95.916664" gradientTransform="matrix(0.062506,0,0,0.062506,0.000000208353,13.438783)">
<stop offset="0" style="stop-color:rgb(100%,43.921569%,26.27451%);stop-opacity:1;"/>
<stop offset="1" style="stop-color:rgb(100%,54.117647%,39.607843%);stop-opacity:1;"/>
</linearGradient>
</defs>
<g id="surface1">
<path style=" stroke:none;fill-rule:nonzero;fill:url(#linear0);" d="M 7.609375 28.007812 L 24.144531 28.007812 L 24.144531 29.355469 L 7.609375 29.355469 Z M 7.609375 28.007812 "/>
<path style=" stroke:none;fill-rule:nonzero;fill:url(#radial0);" d="M 24.144531 27.980469 L 26.792969 27.980469 L 26.792969 26.660156 L 24.144531 26.660156 Z M 24.144531 27.980469 "/>
<path style=" stroke:none;fill-rule:nonzero;fill:url(#radial1);" d="M 7.609375 27.980469 L 4.960938 27.980469 L 4.960938 29.304688 L 7.609375 29.304688 Z M 7.609375 27.980469 "/>
<path style=" stroke:none;fill-rule:nonzero;fill:url(#radial2);" d="M 7.609375 27.980469 L 4.960938 27.980469 L 4.960938 26.660156 L 7.609375 26.660156 Z M 7.609375 27.980469 "/>
<path style=" stroke:none;fill-rule:nonzero;fill:url(#radial3);" d="M 24.144531 27.980469 L 26.792969 27.980469 L 26.792969 29.304688 L 24.144531 29.304688 Z M 24.144531 27.980469 "/>
<path style=" stroke:none;fill-rule:nonzero;fill:url(#linear1);" d="M 11.90625 2.902344 C 11.558594 2.902344 11.222656 3.042969 10.976562 3.289062 L 5.683594 8.582031 C 5.4375 8.828125 5.296875 9.160156 5.296875 9.511719 L 5.296875 26.710938 C 5.296875 27.4375 5.886719 28.027344 6.617188 28.027344 L 25.136719 28.027344 C 25.863281 28.027344 26.453125 27.4375 26.453125 26.710938 L 26.453125 4.21875 C 26.453125 3.492188 25.863281 2.902344 25.136719 2.902344 Z M 11.90625 2.902344 "/>
<path style=" stroke:none;fill-rule:nonzero;fill:url(#linear2);" d="M 8.601562 19.433594 C 7.867188 19.433594 7.277344 20.023438 7.277344 20.757812 L 7.277344 28.035156 L 24.476562 28.035156 L 24.476562 20.757812 C 24.476562 20.023438 23.886719 19.433594 23.152344 19.433594 Z M 8.601562 19.433594 "/>
<path style=" stroke:none;fill-rule:nonzero;fill:url(#linear3);" d="M 11.90625 5.546875 C 11.558594 5.546875 11.222656 5.6875 10.976562 5.933594 L 8.332031 8.582031 C 8.082031 8.828125 7.945312 9.160156 7.945312 9.511719 L 7.945312 14.804688 C 7.945312 15.53125 8.535156 16.121094 9.261719 16.121094 L 22.492188 16.121094 C 23.21875 16.121094 23.808594 15.53125 23.808594 14.804688 L 23.808594 6.867188 C 23.808594 6.136719 23.21875 5.546875 22.492188 5.546875 Z M 11.90625 5.546875 "/>
<path style=" stroke:none;fill-rule:nonzero;fill:url(#linear4);" d="M 15.875 6.535156 C 16.058594 6.535156 16.207031 6.683594 16.207031 6.867188 L 16.207031 14.804688 C 16.207031 14.984375 16.058594 15.132812 15.875 15.132812 C 15.695312 15.132812 15.546875 14.984375 15.546875 14.804688 L 15.546875 6.867188 C 15.546875 6.683594 15.695312 6.535156 15.875 6.535156 Z M 15.875 6.535156 "/>
<path style=" stroke:none;fill-rule:nonzero;fill:url(#linear5);" d="M 17.53125 6.535156 C 17.714844 6.535156 17.859375 6.683594 17.859375 6.867188 L 17.859375 14.804688 C 17.859375 14.984375 17.714844 15.132812 17.53125 15.132812 C 17.347656 15.132812 17.199219 14.984375 17.199219 14.804688 L 17.199219 6.867188 C 17.199219 6.683594 17.347656 6.535156 17.53125 6.535156 Z M 17.53125 6.535156 "/>
<path style=" stroke:none;fill-rule:nonzero;fill:url(#linear6);" d="M 19.183594 6.535156 C 19.367188 6.535156 19.515625 6.683594 19.515625 6.867188 L 19.515625 14.804688 C 19.515625 14.984375 19.367188 15.132812 19.183594 15.132812 C 19 15.132812 18.851562 14.984375 18.851562 14.804688 L 18.851562 6.867188 C 18.851562 6.683594 19 6.535156 19.183594 6.535156 Z M 19.183594 6.535156 "/>
<path style=" stroke:none;fill-rule:nonzero;fill:url(#linear7);" d="M 20.839844 6.535156 C 21.019531 6.535156 21.167969 6.683594 21.167969 6.867188 L 21.167969 14.804688 C 21.167969 14.984375 21.019531 15.132812 20.839844 15.132812 C 20.65625 15.132812 20.507812 14.984375 20.507812 14.804688 L 20.507812 6.867188 C 20.507812 6.683594 20.65625 6.535156 20.839844 6.535156 Z M 20.839844 6.535156 "/>
<path style=" stroke:none;fill-rule:nonzero;fill:url(#linear8);" d="M 22.492188 6.535156 C 22.675781 6.535156 22.824219 6.683594 22.824219 6.867188 L 22.824219 14.804688 C 22.824219 14.984375 22.675781 15.132812 22.492188 15.132812 C 22.308594 15.132812 22.160156 14.984375 22.160156 14.804688 L 22.160156 6.867188 C 22.160156 6.683594 22.308594 6.535156 22.492188 6.535156 Z M 22.492188 6.535156 "/>
<path style=" stroke:none;fill-rule:nonzero;fill:url(#linear9);" d="M 14.222656 6.535156 C 14.40625 6.535156 14.554688 6.683594 14.554688 6.867188 L 14.554688 14.804688 C 14.554688 14.984375 14.40625 15.132812 14.222656 15.132812 C 14.039062 15.132812 13.890625 14.984375 13.890625 14.804688 L 13.890625 6.867188 C 13.890625 6.683594 14.039062 6.535156 14.222656 6.535156 Z M 14.222656 6.535156 "/>
<path style=" stroke:none;fill-rule:nonzero;fill:url(#linear10);" d="M 12.570312 6.535156 C 12.75 6.535156 12.898438 6.683594 12.898438 6.867188 L 12.898438 14.804688 C 12.898438 14.984375 12.75 15.132812 12.570312 15.132812 C 12.386719 15.132812 12.238281 14.984375 12.238281 14.804688 L 12.238281 6.867188 C 12.238281 6.683594 12.386719 6.535156 12.570312 6.535156 Z M 12.570312 6.535156 "/>
<path style=" stroke:none;fill-rule:nonzero;fill:url(#linear11);" d="M 10.914062 7.195312 C 11.097656 7.195312 11.246094 7.34375 11.246094 7.527344 L 11.246094 14.804688 C 11.246094 14.984375 11.097656 15.132812 10.914062 15.132812 C 10.734375 15.132812 10.585938 14.984375 10.585938 14.804688 L 10.585938 7.527344 C 10.585938 7.34375 10.734375 7.195312 10.914062 7.195312 Z M 10.914062 7.195312 "/>
<path style=" stroke:none;fill-rule:nonzero;fill:url(#linear12);" d="M 9.261719 8.851562 C 9.445312 8.851562 9.59375 8.996094 9.59375 9.179688 L 9.59375 14.804688 C 9.59375 14.984375 9.445312 15.132812 9.261719 15.132812 C 9.078125 15.132812 8.929688 14.984375 8.929688 14.804688 L 8.929688 9.179688 C 8.929688 8.996094 9.078125 8.851562 9.261719 8.851562 Z M 9.261719 8.851562 "/>
<path style="fill:none;stroke-width:3;stroke-linecap:round;stroke-linejoin:round;stroke:rgb(12.941176%,12.941176%,12.941176%);stroke-opacity:1;stroke-miterlimit:4;" d="M 190.48181 -126.258474 C 184.919841 -126.258474 179.545354 -124.008689 175.60823 -120.071565 L 133.299771 -77.700611 C 129.300152 -73.763487 127.112861 -68.451495 127.112861 -62.827032 L 127.112861 21.852382 C 127.112861 33.476272 136.54946 42.912871 148.17335 42.912871 L 359.840637 42.912871 C 371.464527 42.912871 380.901126 33.476272 380.901126 21.852382 L 380.901126 -105.135492 C 380.901126 -116.821876 371.464527 -126.258474 359.840637 -126.258474 Z M 190.48181 -126.258474 " transform="matrix(0.062506,0,0,0.062506,0,13.438783)"/>
<path style=" stroke:none;fill-rule:nonzero;fill:rgb(100%,100%,100%);fill-opacity:0.313725;" d="M 11.90625 2.902344 C 11.558594 2.902344 11.222656 3.042969 10.976562 3.289062 L 5.683594 8.582031 C 5.4375 8.828125 5.296875 9.160156 5.296875 9.511719 L 5.296875 9.835938 C 5.296875 9.488281 5.4375 9.152344 5.683594 8.90625 L 10.976562 3.613281 C 11.222656 3.367188 11.558594 3.226562 11.90625 3.226562 L 25.136719 3.226562 C 25.863281 3.226562 26.453125 3.816406 26.453125 4.542969 L 26.453125 4.21875 C 26.453125 3.492188 25.863281 2.902344 25.136719 2.902344 Z M 11.90625 2.902344 "/>
<path style=" stroke:none;fill-rule:nonzero;fill:rgb(0%,0%,0%);fill-opacity:0.235294;" d="M 5.296875 26.265625 L 5.296875 26.710938 C 5.296875 27.4375 5.886719 28.027344 6.617188 28.027344 L 25.136719 28.027344 C 25.863281 28.027344 26.453125 27.4375 26.453125 26.710938 L 26.453125 26.265625 C 26.453125 26.992188 25.863281 27.582031 25.136719 27.582031 L 6.617188 27.582031 C 5.886719 27.582031 5.296875 26.992188 5.296875 26.265625 Z M 5.296875 26.265625 "/>
<path style="fill:none;stroke-width:3;stroke-linecap:round;stroke-linejoin:round;stroke:rgb(12.941176%,12.941176%,12.941176%);stroke-opacity:1;stroke-miterlimit:4;" d="M 190.48181 -168.566934 C 184.919841 -168.566934 179.545354 -166.317149 175.60823 -162.380025 L 90.928817 -77.700611 C 86.991693 -73.763487 84.741908 -68.451495 84.741908 -62.827032 L 84.741908 212.334192 C 84.741908 223.958082 94.178506 233.39468 105.86489 233.39468 L 402.149097 233.39468 C 413.772987 233.39468 423.209586 223.958082 423.209586 212.334192 L 423.209586 -147.506445 C 423.209586 -159.130335 413.772987 -168.566934 402.149097 -168.566934 Z M 190.48181 -168.566934 " transform="matrix(0.062506,0,0,0.062506,0,13.438783)"/>
<path style=" stroke:none;fill-rule:nonzero;fill:url(#linear13);" d="M 8.601562 19.433594 C 7.867188 19.433594 7.277344 20.023438 7.277344 20.757812 L 7.277344 21.417969 L 24.476562 21.417969 L 24.476562 20.757812 C 24.476562 20.023438 23.886719 19.433594 23.152344 19.433594 Z M 8.601562 19.433594 "/>
<path style="fill:none;stroke-width:11.338583;stroke-linecap:round;stroke-linejoin:round;stroke:rgb(12.941176%,12.941176%,12.941176%);stroke-opacity:1;stroke-miterlimit:4;" d="M 520.107819 1175.08465 C 475.70261 1175.08465 440.036724 1210.750536 440.036724 1255.155745 L 440.036724 1695.192469 L 1480.016164 1695.192469 L 1480.016164 1255.155745 C 1480.016164 1210.750536 1444.350279 1175.08465 1399.94507 1175.08465 Z M 520.107819 1175.08465 " transform="matrix(0.016538,0,0,0.016538,0,0)"/>
</g>
</svg>
